X:1
T:Title
%%score ( 1 2 ) 3
L:1/8
Q:1/4=90
M:6/8
K:Bb
V:1 treble nm="Grand Piano, Soprano"
V:2 treble 
V:3 bass nm="Choir Pad, Win One"
V:1
 [B,D][B,D][B,D] [B,D][CE][DF] | [EG][EG][EG] [DF]3 | [EG][EG][EG] [=EG][EA][EB] | [Fd]3 [Fc]3 | %4
w: By~Ira~Bishop~Wilson * * * * *||||
 [FB][FB][FB] [FB][Fc][Fd] | [EG][EG][EG] A2 G | [DF][DG][DA] [FB][Fc][Fd] | [Ec]3 [DB]3 | %8
w: ||||
 [Ge]3 .[EG]3 | [DF]3 .[Fd]3 | [Fc]3 [=EG][EA][EB] | [Fd]2 [Fc] c2- [Ec] | %12
w: ||||
 [DB][EB][FB] [GB][FA][EG] | [DF][FB][Fc] [_Ad]2 [Ge] | [Ge][Gd][Gc] [FB]2 [EA] | [DB]6- | %16
w: ||||
 [DB]3 z3 |] %17
w: |
V:2
 x6 | x6 | x6 | x6 | x6 | z3 _D3 | x6 | x6 | x6 | x6 | x6 | z3 .F3 | x6 | x6 | x6 | x6 | x6 |] %17
V:3
 [B,,F,][B,,F,][B,,F,] [B,,F,][B,,F,][B,,B,] | [E,B,][E,B,][E,B,] [B,,B,]3 | %2
 [E,B,][E,B,][E,B,] [C,B,][C,A,][C,G,] | [F,B,]3 [F,A,]3 | [D,B,][D,B,][D,B,] [D,B,][C,A,][B,,B,] | %5
 [E,B,][E,B,][E,B,] [=E,B,]3 | [F,B,][F,B,][F,B,] [F,D][F,C][F,B,] | [F,A,]3 [B,,B,]3 | %8
 [E,B,]3 .[E,B,]3 | B,3 .[B,,B,]3 | [C,A,]3 [C,B,][C,A,][C,G,] | [F,B,]2 [F,A,] [F,A,]3 | %12
 [B,,F,][C,F,][D,B,] [E,B,][E,B,][E,B,] | B,[K:treble][B,D][B,E] [B,F]2 [CE] | %14
 [C,C][D,=B,][E,C] [D,D]2 [F,C] | [B,,B,]6- | [B,,B,]3 z3 |] %17

